desc:MIDI Pitchbend

slider1:8192<0,16383,1>Pitch Bend
slider2:1<1,16,1>Channel

@init
oldPB = 8192;

@slider
pitchbend = slider1;
channel = slider2 - 1;


@block
while (midirecv(offset,msg1,msg2,msg3)) ( //MIDI revieve loop
	midisend(offset, msg1, msg2, msg3);
);

(pitchbend != oldPB) ? (
	PBout = pitchbend;
	PBout > 16383 ? PBout = 16383;
	PBout < 0 ? PBout = 0;
	LSBout = PBout & 127;
	MSBout = PBout>>7;
	midisend(offset, ($xE0 + channel), LSBout, MSBout);
	oldPB = pitchbend;
)